X: 113201
Q: "Strathspey."
M: C
L: 1/16
K: Gm
|: ud2 |\
vBuG3 vG3B vAF3 F3A | BG3 G3A B3A Bg3 |\
uA2 |\
vB4 ud3uB vf3vBud3uB | F4 A3F c3F (Ac3) |
fd3 d3f ec3 c3e | dB3 B3d c3B AF3 |\


